X:1
T:Title
%%score { ( 1 4 ) | ( 2 3 ) }
L:1/8
Q:1/4=100
M:4/4
K:C
V:1 treble nm="Grand Piano"
V:4 treble 
V:2 bass 
V:3 bass 
V:1
 [CEG]>[CEG] [G,CE][G,DF] [CEG]3 [EGc] | .[DFc]2 .[DFA]2 [Ec]2 [EG]2 | A>A AA [EG]2 [Ec]2 | %3
w: John~R.~Sweney * * * * *|||
 [^Fc]2 dc z2 =F2 | [Ec]>[Ec] [Ec][Fd] [Ge]2 [Ec]2 | cdcA [EG]2 [CE]2 | %6
w: |||
 [DF]2 [EG][DF] [CE][EG] [Ec]2 | z2 B2 z4 | C>C EG c4 | [CGc]>[CGc] dd e4 | cc[GB][FA] [EG]3 [Gc] | %11
w: |||||
 [FB]2 z C d4 | [Ge]>[Ge] [Ge]d c2 z C | [^Fd]>[Fd] [Fd][Ac] [GB]2 [D=FB]2 | %14
w: |||
 [Ec]3 [EG] F-[FB][Gc][Ad] | [Ge]2 [B,Fd]2 [Ec]4 |] %16
w: ||
V:2
 C,>C, C,C, C,3 C, | z[K:treble] B z B[K:bass] [C,C]2 [C,C]2 | %2
 [F,CF]>[F,CF] [F,CF][F,CF] [C,C]2 [C,C]2 | [D,A,]2 A,[K:treble]D G2 z2 | %4
 [C,C]>[C,G,] [C,G,][C,G,] [C,C]2 [C,G,]2 | [F,A,F][F,A,F][F,A,F][F,CF] [C,C]2 [C,G,]2 | %6
 [G,,G,]2 [G,,G,]2 [C,G,]2 [C,G,]2 | [F,A,F]2 .[G,D]2 [C,G,]4 | C,>C, E,G, C4 | %9
 E,>E,[K:treble] [G,B,G][G,B,G] [CG]4 | [F,A,F][F,A,F][K:bass][F,C][F,C] [C,C]3 [E,C] | %11
 [D,G,]2 .[C,G,]2 [G,B,G]4 | [C,C]>[C,C] [E,C][K:treble][G,B,F] [CE]2[K:bass] .[C,G,]2 | %13
 [D,A,]>[D,A,] [D,A,][^F,D] [G,D]2 [G,,G,]2 | [C,C]3 [C,C] [F,C][D,D][E,C][F,C] | %15
 [G,C]2 [G,,G,]2 [C,C]4 |] %16
V:3
 x8 | G,2[K:treble] G,,2[K:bass] z4 | x8 | z2 D,2[K:treble] [G,D]4 | x8 | x8 | x8 | x8 | x8 | %9
 x2[K:treble] x6 | x2[K:bass] x6 | x8 | x3[K:treble] x3[K:bass] x2 | x8 | x8 | x8 |] %16
V:4
 x8 | x8 | x8 | z2 ^F2 B4 | x8 | x8 | x8 | d2 z F [Ec]4 | x8 | x8 | x8 | z2 [Ec]2 z4 | %12
 z4 z2 [Ec]2 | x8 | z4 .A2 z2 | x8 |] %16

